gtk/icons/gesture-stretch-symbolic.svg

<svg
        xmlns='http://www.w3.org/2000/svg'
        xmlns:svg='http://www.w3.org/2000/svg'
        width='64'
        height='64'>
  <path
          clip-path='none'
          fill='url(#gpa:foreground) rgb(0,0,0)'
          fill-opacity='1'
          fill-rule='nonzero'
          d='M 25 8 C 20.047 8, 16 12.047, 16 17 C 16 21.85, 19.882 25.82, 24.693 25.984 L 27 30.894 L 27 43.494 L 20.465 44.285 L 19.415 43.158 C 19.7999 42.1495, 19.9981 41.0794, 20 40 C 20 35.047, 15.953 31, 11 31 C 6.047 31, 2 35.047, 2 40 C 2 44.953, 6.047 49, 11 49 C 11.857 49, 12.684 48.87, 13.47 48.645 L 22 58 L 58 58 C 60.216 58, 62 56.133, 62 53.814 L 62 32.186 C 62 29.866, 60.216 28, 58 28 C 55.784 28, 54 29.867, 54 32.186 L 54 37 L 53 37 L 53 23.302 C 53 20.982, 51.216 19.116, 49 19.116 C 46.784 19.116, 45 20.983, 45 23.302 L 45 37 L 44 37 L 44 19.186 C 44 16.866, 42.216 15, 40 15 C 37.784 15, 36 16.867, 36 19.186 L 36 37 L 35 37 L 35 30.186 L 34.998 30.172 C 35.0251 29.5271, 34.8958 28.8851, 34.621 28.301 L 31.975 22.668 C 33.2844 21.0693, 33.9999 19.0665, 34 17 C 34 12.047, 29.953 8, 25 8 Z M 25 11 C 28.331 11, 31 13.669, 31 17 C 31 17.883, 30.808 18.715, 30.47 19.467 L 29.06 16.463 C 28.785 14.483, 27.05 13.004, 25 13.002 C 24.942 13.002, 24.884 13.005, 24.826 13.008 C 22.6481 13.0461, 20.9011 14.8198, 20.896 16.998 L 20.896 17 L 20.898 17.027 C 20.9002 17.626, 21.0369 18.2169, 21.298 18.756 L 23.156 22.711 C 20.6725 21.9186, 18.9902 19.6068, 19 17 C 19 13.669, 21.669 11, 25 11 Z M 11 34 C 12.6871 33.9936, 14.2982 34.7005, 15.4359 35.9462 C 16.5736 37.1919, 17.1319 38.8604, 16.973 40.54 L 13.965 37.313 C 13.2389 36.5121, 12.2195 36.0391, 11.139 36.002 C 7.552 35.879, 5.63 40.176, 8.113 42.768 L 11.057 45.998 L 11 46 C 7.669 46, 5 43.331, 5 40 C 5 36.669, 7.669 34, 11 34 Z'
          class='foreground foreground-fill'>
  </path>
</svg>

<svg xmlns="http://www.w3.org/2000/svg" width="64" height="64">
  <path d="M25 8c-4.953 0-9 4.047-9 9 0 4.85 3.882 8.82 8.693 8.984L27 30.894v12.6l-6.535.791-1.05-1.127A8.9 8.9 0 0 0 20 40c0-4.953-4.047-9-9-9s-9 4.047-9 9 4.047 9 9 9c.857 0 1.684-.13 2.47-.355L22 58h36c2.216 0 4-1.867 4-4.186V32.186C62 29.866 60.216 28 58 28s-4 1.867-4 4.186V37h-1V23.302c0-2.32-1.784-4.186-4-4.186s-4 1.867-4 4.186V37h-1V19.186C44 16.866 42.216 15 40 15s-4 1.867-4 4.186V37h-1v-6.814l-.002-.014a4 4 0 0 0-.377-1.871l-2.646-5.633A8.946 8.946 0 0 0 34 17c0-4.953-4.047-9-9-9Zm0 3c3.331 0 6 2.669 6 6 0 .883-.192 1.715-.53 2.467l-1.41-3.004c-.275-1.98-2.01-3.459-4.06-3.461-.058 0-.116.003-.174.006a4 4 0 0 0-3.93 3.99V17l.002.027a4 4 0 0 0 .4 1.729l1.858 3.955A5.971 5.971 0 0 1 19 17c0-3.331 2.669-6 6-6zM11 34a5.977 5.977 0 0 1 5.973 6.54l-3.008-3.227a4 4 0 0 0-2.826-1.311c-3.587-.123-5.509 4.174-3.026 6.766l2.944 3.23L11 46c-3.331 0-6-2.669-6-6s2.669-6 6-6Z"/>
</svg>
